X:145
M:C|
L:1/8
K:D
|:dc de f2 ed|cB cd e2 A2|dc de fg ef|d2a2a2 (3ABc|dc de f2 ed|cB cd e2A2|
|:d2a2 fga2|cB cd ec A2|d2a2 fg ef|d2 ab a2 (3ABc|d2a2 ba gf|gf ed cd eA|

